X:493
T: Xinjianchuanghua
N: C1912
O: China, Hebei Changli
S: IV, 19]
R: Xiaodiao, Xiudenglong]
M: 4/4
L: 1/16
K: F
A2A2c2D2F3GF2G2 | A4c2G2A8
A4A2f2d2d2c2d2 | A4G2D2F3GF2G2
A4c2D2F3GF2G2 | A4c2G2A8
A4A2f2d2d2c2d2 | A4G2D2F3GF2G2
A3GA2c2d2ded2c2 | A2AGA2c2d2ded2c2
A4A2G2F4F2D2 | G3AG2F2D8
F6G2A4A4 | A2e2d2edc2c2c2A2
f4A2G2F8
c6A2c3Ac2d2 | A2AAA2G2F2D2c2A2
G2AGF4D2DAG2E2 | D2D4C2D8

